X: 17271
T: Here's To Temperance
R: jig
M: 6/8
K: Adorian
|:E2A AGA|B/^c/de g3|gab age|deg ~B3|
E2A AGA|B/^c/de g2b|age dBe|1 ABG A2G:|2 ABG A3||
|:e2a aga|b2c' bag|egg dgg|~e3 ged|
eae ~a3|b2c' bag|egg ged|1 BAG A3:|2 BAG A2G||

